!!!OTL: MAEDCHEN, WARUM WEINEST DU
!!!ARE: Europa, Mitteleuropa, Deutschland
!!!SCT: Z0260
!!!YEM: Copyright 1995, estate of Helmut Schaffrath.
**kern
*ICvox
*Ivox
*M2/4
*k[f#]
*G:
{8b
8b
8b
8b
=1
8b
8dd
4dd
=2
8a
8cc
4cc
=3
8b
8dd
4dd}
=4
{8b
8b
8b
8b
=5
8b
8dd
4dd
=6
8a
8cc
8cc
8cc
=7
4b
4r}
=8
{8a
8cc
8cc
8cc
=9
8b
8gg
8dd
8dd
=10
8a
8cc
8cc
8cc
=11
8b
8gg
8dd
8dd}
=12
{8b
8b
8b
8b
=13
8b
8dd
4dd
=14
8a
8cc
8cc
8cc
=15
4b
4r}
==
!!!AGN: lyrisches Lied, Romanze
!!!ONB: ESAC (Essen Associative Code) Database: ZUCCAL
!!!AMT: simple duple
!!!AIN: vox
!!!EED: Helmut Schaffrath
!!!EEV: 1.0
*-
